images/mtrgen-icon-light.svg

<svg width="663" height="800" xmlns="http://www.w3.org/2000/svg"><g fill="none" fill-rule="evenodd"><path d="M82.973 27.586C82.973 12.35 95.323 0 110.561 0h413.794l137.93 137.931v634.483c0 15.236-12.35 27.586-27.585 27.586H110.56c-15.235 0-27.585-12.35-27.585-27.586V27.586h-.002z" fill="#E4EAF8"/><g transform="translate(82.813)" fill="#D5DCED"><path d="M441.54 0v110.345c0 15.235 12.352 27.586 27.587 27.586h110.345L441.54 0zm9.819 765.178H.163V455.055h451.196c38.06 0 68.915 30.855 68.915 68.916v172.292c0 38.061-30.855 68.915-68.915 68.915z"/></g><path d="M230.717 134.75c.726 1.004 1.089 1.779 1.089 2.325 0 3.297 4.746 13.408 4.746 15.596 0 2.189 6.783 10.63 6.783 10.63s2.334 4.815 7.382 4.815h22.88l16.921 22.099 17.413-11.049 17.668 11.049v10.493h31.543l9.311-10.493c-15.438-4.828-24.911-8.511-28.418-11.049-3.508-2.539-9.511-6.222-18.01-11.05V154.86l-12.094-10.867h-17.413l-4.28-6.918-20.121-7.351a883.164 883.164 0 0 0-9.283-11.202c34.558-18.579 74.079-29.119 116.063-29.119 60.909 0 116.636 22.185 159.542 58.915l-.821 2.4-7.124 4.724-2.71 7.027-14.211.994-14.773 1.033-12.828 4.893.523 7.48 13.678 7.258c-3.511.476-7.691 3.485-12.539 9.028-4.848 5.542-4.527 10.125.962 13.749l22.434 7.446-3.665 11.818 9.579 14.676-1.823 5.021c-4.938-10.417-12.33-21.073-29.415-21.073-14.98 0-26.623 6.144-34.929 18.431l-71.959 124.752c-40.443-72.789-63.595-113.499-69.455-122.131-8.791-12.947-21.736-21.052-36.963-21.052-15.228 0-26.732 16.102-32.546 30.511-3.876 9.606-22.068 71.406-54.576 185.4h64.497l33.872-128.964c37.649 74.579 60.212 116.184 67.69 124.815 11.216 12.946 39.362 12.946 51.559 0 8.131-8.631 31.284-50.236 69.459-124.815l35.021 128.964h63.673c-14.424-53.926-25.875-96.146-34.352-126.659 4.111 1.993 10.142.335 18.092-4.973 12.17 2.776 18.303 4.855 18.4 6.237.097 1.382 5.534 5.598 16.313 12.649l4.65-.325 10.187-.712 16.975 6.865 3.038-.213c.002.43.003.859.003 1.289 0 135.563-109.895 245.458-245.458 245.458-45.023 0-87.214-12.121-123.489-33.279v-.261l8.571-10.035v-15.906c-2.857-5.146-4.285-8.443-4.285-9.89v-10.123l20.307-9.267-5.838-18.76-14.469-8.364 4.285-18.17h-8.571l-18.587 6.683-10.235 16.543 6.001 3.308s.812 3.867 13.96 3.867c13.147 0 2.911 7.471 0 7.471-2.912 0-10.798 2.458-13.96 7.422-2.108 3.309-5.51 6.398-10.207 9.267l-13.567-4.303-8.831 6.385c-41.265-43.916-66.543-103.029-66.543-168.046 0-82.57 40.77-155.618 103.278-200.111zm352.381 76.958l12.028 14.385 8.935 14.936-8.534 18.302-10.158 13.47-1.385-12.762-13.671-6.374-5.174 4.459 7.565 16.054 6.802 19.509-22.931-17.198-13.386-20.887-1.633-15.347-10.43 2.009c-5.081-5.714-7.996-9.365-8.744-10.95-.748-1.586 5.666-1.917 19.241-.993l9.52-6.549 11.958 8.801 11.46 5.344c-.361-3.51-.011-6.895 1.05-10.154 1.062-3.259 3.557-8.611 7.487-16.055z" fill="#A90000" paint-order="fill" filter="none"/><path d="M534.102 729.989H34.458C15.426 729.989 0 714.562 0 695.53V523.239c0-19.031 15.426-34.458 34.458-34.458h499.644c19.032 0 34.458 15.427 34.458 34.458V695.53c0 19.032-15.426 34.459-34.458 34.459z" filter="none" paint-order="fill" fill="rgb(154, 0, 0)"/><path d="M70.084 661.84V546.137c0-8.916 7.05-15.966 15.966-15.966h3.525c6.843 0 11.612 3.525 14.515 8.294l38.567 62.828 38.775-63.035c3.318-5.391 7.88-8.087 14.307-8.087h3.525c8.917 0 15.967 7.05 15.967 15.966v115.288c0 8.917-7.05 15.967-15.967 15.967-8.708 0-15.758-7.258-15.758-15.967V589.06l-27.993 43.13c-3.318 4.976-7.465 8.086-13.27 8.086-5.806 0-9.953-3.11-13.271-8.086l-27.578-42.508v72.16c0 8.708-7.05 15.55-15.759 15.55-8.708 0-15.551-6.842-15.551-15.55zm213.78-.415v-100.98h-30.688c-8.087 0-14.722-6.636-14.722-14.722 0-8.087 6.635-14.722 14.722-14.722h93.309c8.086 0 14.722 6.635 14.722 14.722 0 8.086-6.636 14.722-14.722 14.722h-30.688v100.98c0 8.917-7.05 15.967-15.967 15.967-8.916 0-15.966-7.05-15.966-15.967zm100.566 0V546.967c0-8.916 7.05-15.966 15.966-15.966h50.387c18.454 0 32.762 5.184 42.3 14.722 8.087 8.086 12.441 19.49 12.441 33.176v.415c0 22.809-11.404 36.909-29.03 44.166l22.187 26.956c3.11 3.94 5.184 7.257 5.184 12.233 0 8.917-7.465 14.723-15.137 14.723-7.257 0-12.026-3.525-15.758-8.295L441.867 629.7h-25.505v31.725c0 8.917-7.05 15.967-15.966 15.967s-15.966-7.05-15.966-15.967zm31.932-59.924h32.347c15.552 0 24.468-8.295 24.468-20.528v-.415c0-13.685-9.538-20.735-25.09-20.735h-31.725V601.5z" fill="#FFF" filter="drop-shadow(rgba(0, 0, 0, 0.3) 12px 12px 0px)"/></g></svg>

<?xml version="1.0" encoding="utf-8"?>
<svg width="663px" height="800px" viewBox="0 0 663 800" version="1.1" xmlns="http://www.w3.org/2000/svg">
  <title>mkv-svgrepo-com</title>
  <desc>Created with Sketch.</desc>
  <g id="Page-1" stroke="none" stroke-width="1" fill="none" fill-rule="evenodd">
    <g id="mkv-svgrepo-com">
      <path d="M82.9734375,27.5859375 C82.9734375,12.35 95.3234375,0 110.560938,0 L524.354688,0 L662.285938,137.93125 L662.285938,772.414062 C662.285938,787.65 649.935938,800 634.7,800 L110.560938,800 C95.325,800 82.975,787.65 82.975,772.414062 L82.975,27.5859375 L82.9734375,27.5859375 Z" id="Path" style="fill: rgb(172, 164, 136);"/>
      <g id="Group" transform="translate(82.812500, 0.000000)" fill="#D5DCED">
        <path d="M441.540625,0 L441.540625,110.345313 C441.540625,125.579688 453.892187,137.93125 469.126562,137.93125 L579.471875,137.93125 L441.540625,0 Z" id="Path-2" style="fill: rgb(140, 131, 100);"/>
        <path d="M 451.359 765.178 L 0.163 765.178 L 0.163 455.055 L 451.359 455.055 C 489.419 455.055 520.274 485.91 520.274 523.971 L 520.274 696.263 C 520.274 734.324 489.419 765.178 451.359 765.178 Z" id="Path-2" style="fill: rgb(140, 131, 100);"/>
      </g>
      <ellipse style="stroke: rgb(0, 0, 0); fill: rgb(255, 255, 255);" cx="372.897" cy="334.861" rx="265.321" ry="265.321"/>
      <path d="M 230.717 134.75 C 231.443 135.754 231.806 136.529 231.806 137.075 C 231.806 140.372 236.552 150.483 236.552 152.671 C 236.552 154.86 243.335 163.301 243.335 163.301 C 243.335 163.301 245.669 168.116 250.717 168.116 C 254.082 168.116 257.555 168.116 261.135 168.116 L 273.597 168.116 L 290.518 190.215 L 307.931 179.166 L 325.599 190.215 L 325.599 200.708 L 343.21 200.708 L 357.142 200.708 L 366.453 190.215 C 351.015 185.387 341.542 181.704 338.035 179.166 C 334.527 176.627 328.524 172.944 320.025 168.116 L 320.025 154.86 L 307.931 143.993 L 290.518 143.993 L 286.238 137.075 L 266.117 129.724 C 262.62 125.442 259.526 121.708 256.834 118.522 C 291.392 99.943 330.913 89.403 372.897 89.403 C 433.806 89.403 489.533 111.588 532.439 148.318 L 531.618 150.718 L 524.494 155.442 L 521.784 162.469 L 507.573 163.463 L 492.8 164.496 L 479.972 169.389 L 480.495 176.869 L 494.173 184.127 C 490.662 184.603 486.482 187.612 481.634 193.155 C 476.786 198.697 477.107 203.28 482.596 206.904 C 497.552 211.868 505.03 214.35 505.03 214.35 C 505.03 214.35 503.808 218.29 501.365 226.168 C 507.751 235.952 510.944 240.844 510.944 240.844 C 510.944 240.844 510.336 242.518 509.121 245.865 C 504.183 235.448 496.791 224.792 479.706 224.792 C 464.726 224.792 453.083 230.936 444.777 243.223 L 372.818 367.975 C 332.375 295.186 309.223 254.476 303.363 245.844 C 294.572 232.897 281.627 224.792 266.4 224.792 C 251.172 224.792 239.668 240.894 233.854 255.303 C 229.978 264.909 211.786 326.709 179.278 440.703 L 243.775 440.703 L 277.647 311.739 C 315.296 386.318 337.859 427.923 345.337 436.554 C 356.553 449.5 384.699 449.5 396.896 436.554 C 405.027 427.923 428.18 386.318 466.355 311.739 L 501.376 440.703 L 565.049 440.703 C 550.625 386.777 539.174 344.557 530.697 314.044 C 534.808 316.037 540.839 314.379 548.789 309.071 C 560.959 311.847 567.092 313.926 567.189 315.308 C 567.286 316.69 572.723 320.906 583.502 327.957 L 588.152 327.632 L 598.339 326.92 L 615.314 333.785 L 618.352 333.572 C 618.354 334.002 618.355 334.431 618.355 334.861 C 618.355 470.424 508.46 580.319 372.897 580.319 C 327.874 580.319 285.683 568.198 249.408 547.04 L 249.408 546.779 L 257.979 536.744 L 257.979 520.838 C 255.122 515.692 253.694 512.395 253.694 510.948 C 253.694 509.5 253.694 506.126 253.694 500.825 L 274.001 491.558 L 268.163 472.798 L 253.694 464.434 L 257.979 446.264 L 249.408 446.264 C 237.017 450.719 230.821 452.947 230.821 452.947 C 230.821 452.947 227.409 458.461 220.586 469.49 C 224.587 471.696 226.587 472.798 226.587 472.798 C 226.587 472.798 227.399 476.665 240.547 476.665 C 253.694 476.665 243.458 484.136 240.547 484.136 C 237.635 484.136 229.749 486.594 226.587 491.558 C 224.479 494.867 221.077 497.956 216.38 500.825 C 207.336 497.956 202.813 496.522 202.813 496.522 C 202.813 496.522 199.87 498.65 193.982 502.907 C 152.717 458.991 127.439 399.878 127.439 334.861 C 127.439 252.291 168.209 179.243 230.717 134.75 Z M 583.098 211.708 L 595.126 226.093 L 604.061 241.029 L 595.527 259.331 L 585.369 272.801 L 583.984 260.039 L 570.313 253.665 L 565.139 258.124 L 572.704 274.178 L 579.506 293.687 L 556.575 276.489 L 543.189 255.602 L 541.556 240.255 L 531.126 242.264 C 526.045 236.55 523.13 232.899 522.382 231.314 C 521.634 229.728 528.048 229.397 541.623 230.321 L 551.143 223.772 L 563.101 232.573 L 574.561 237.917 C 574.2 234.407 574.55 231.022 575.611 227.763 C 576.673 224.504 579.168 219.152 583.098 211.708 Z" id="Combined-Shape" style="stroke-width: 10px; paint-order: fill; filter: none; fill: rgb(180, 0, 0);"/>
      <path d="M 534.102 729.989 L 34.458 729.989 C 15.426 729.989 0 714.562 0 695.53 L 0 523.239 C 0 504.208 15.426 488.781 34.458 488.781 L 534.102 488.781 C 553.134 488.781 568.56 504.208 568.56 523.239 L 568.56 695.53 C 568.56 714.562 553.134 729.989 534.102 729.989 Z" id="Path-2" style="filter: none; stroke-width: 10px; paint-order: fill; fill: rgb(154, 0, 0);"/>
      <g id="Group-2" transform="matrix(1.249111, 0, 0, 1.249111, 69.950226, 530.001404)" fill="#FFFFFF" style="filter: drop-shadow(rgba(0, 0, 0, 0.3) 12px 12px 0px);">
        <path d="M0.107,105.546 L0.107,12.918 C0.107,5.78 5.751,0.136 12.889,0.136 L15.711,0.136 C21.189,0.136 25.007,2.958 27.331,6.776 L58.207,57.074 L89.249,6.61 C91.905,2.294 95.557,0.136 100.703,0.136 L103.525,0.136 C110.663,0.136 116.307,5.78 116.307,12.918 L116.307,105.214 C116.307,112.352 110.663,117.996 103.525,117.996 C96.553,117.996 90.909,112.186 90.909,105.214 L90.909,47.28 L68.499,81.808 C65.843,85.792 62.523,88.282 57.875,88.282 C53.227,88.282 49.907,85.792 47.251,81.808 L25.173,47.778 L25.173,105.546 C25.173,112.518 19.529,117.996 12.557,117.996 C5.585,117.996 0.107,112.518 0.107,105.546 Z M171.253,105.214 L171.253,24.372 L146.685,24.372 C140.211,24.372 134.899,19.06 134.899,12.586 C134.899,6.112 140.211,0.8 146.685,0.8 L221.385,0.8 C227.859,0.8 233.171,6.112 233.171,12.586 C233.171,19.06 227.859,24.372 221.385,24.372 L196.817,24.372 L196.817,105.214 C196.817,112.352 191.173,117.996 184.035,117.996 C176.897,117.996 171.253,112.352 171.253,105.214 Z M251.763,105.214 L251.763,13.582 C251.763,6.444 257.407,0.8 264.545,0.8 L304.883,0.8 C319.657,0.8 331.111,4.95 338.747,12.586 C345.221,19.06 348.707,28.19 348.707,39.146 L348.707,39.478 C348.707,57.738 339.577,69.026 325.467,74.836 L343.229,96.416 C345.719,99.57 347.379,102.226 347.379,106.21 C347.379,113.348 341.403,117.996 335.261,117.996 C329.451,117.996 325.633,115.174 322.645,111.356 L297.745,79.816 L277.327,79.816 L277.327,105.214 C277.327,112.352 271.683,117.996 264.545,117.996 C257.407,117.996 251.763,112.352 251.763,105.214 Z M277.327,57.24 L303.223,57.24 C315.673,57.24 322.811,50.6 322.811,40.806 L322.811,40.474 C322.811,29.518 315.175,23.874 302.725,23.874 L277.327,23.874 L277.327,57.24 Z" id="MTR-Copy"/>
      </g>
    </g>
  </g>
</svg>
